packages/Snappmarket/src/ListSquareIcon/index.svg

<svg
  style="width:15px;height:15px"
  version="1.1"
  xmlns="http://www.w3.org/2000/svg"
  width="32"
  height="32"
  viewBox="0 0 32 32"
  id="ListSquareIcon"
>
  <title>shopping-list-square</title>
  <path d="M19.286 9.321h-12.609c-0.566 0-1.024-0.458-1.024-1.024s0.458-1.024 1.024-1.024v0h12.608c0.566 0 1.024 0.458 1.024 1.024s-0.458 1.024-1.024 1.024v0zM19.286 17.087h-12.609c-0.566 0-1.024-0.458-1.024-1.024s0.458-1.024 1.024-1.024v0h12.608c0.566 0 1.024 0.458 1.024 1.024s-0.458 1.024-1.024 1.024v0zM19.286 24.851h-12.609c-0.566 0-1.024-0.458-1.024-1.024s0.458-1.024 1.024-1.024v0h12.608c0.566 0 1.024 0.458 1.024 1.024s-0.458 1.024-1.024 1.024v0zM24.576 9.321h-0.069c-0.566 0-1.024-0.458-1.024-1.024s0.458-1.024 1.024-1.024v0h0.069c0.566 0 1.024 0.458 1.024 1.024s-0.458 1.024-1.024 1.024v0zM24.576 17.087h-0.069c-0.566 0-1.024-0.458-1.024-1.024s0.458-1.024 1.024-1.024v0h0.069c0.566 0 1.024 0.458 1.024 1.024s-0.458 1.024-1.024 1.024v0zM24.576 24.851h-0.069c-0.566 0-1.024-0.458-1.024-1.024s0.458-1.024 1.024-1.024v0h0.069c0.566 0 1.024 0.458 1.024 1.024s-0.458 1.024-1.024 1.024v0zM30.108 31.032h-28.288c-0.566 0-1.024-0.458-1.024-1.024v0-27.761c0-0.566 0.458-1.024 1.024-1.024v0h28.288c0.566 0 1.024 0.458 1.024 1.024v0 27.761c0 0.566-0.458 1.024-1.024 1.024v0zM2.844 28.984h26.24v-25.713h-26.24z"/>
</svg>

<svg xmlns="http://www.w3.org/2000/svg" viewBox="0 0 32 32">
  <path d="M19.286 9.321H6.677a1.023 1.023 0 110-2.048h12.608a1.023 1.023 0 110 2.048zm0 7.766H6.677a1.023 1.023 0 110-2.048h12.608a1.023 1.023 0 110 2.048zm0 7.764H6.677a1.023 1.023 0 110-2.048h12.608a1.023 1.023 0 110 2.048zm5.29-15.53h-.069a1.023 1.023 0 110-2.048h.069a1.023 1.023 0 110 2.048zm0 7.766h-.069a1.023 1.023 0 110-2.048h.069a1.023 1.023 0 110 2.048zm0 7.764h-.069a1.023 1.023 0 110-2.048h.069a1.023 1.023 0 110 2.048zm5.532 6.181H1.82a1.023 1.023 0 01-1.024-1.024V2.247c0-.566.458-1.024 1.024-1.024h28.288c.566 0 1.024.458 1.024 1.024v27.761c0 .566-.458 1.024-1.024 1.024zM2.844 28.984h26.24V3.271H2.844z"/>
</svg>
